build/images/icons/menu-ico.svg

<svg xmlns="http://www.w3.org/2000/svg" width="49" height="38"><path fill-rule="evenodd" fill="#FFF" d="M0 38V0h49v38H0zM45.581 3.353H3.419v31.294h42.162V3.353zM40 12.062H10.187V8.687H40v3.375zm0 8.438H10.187v-3.375H40V20.5zm0 8.437H10.187v-3.375H40v3.375z"/></svg>

<svg 
 xmlns="http://www.w3.org/2000/svg"
 xmlns:xlink="http://www.w3.org/1999/xlink"
 width="49px" height="38px">
<path fill-rule="evenodd"  fill="rgb(255, 255, 255)"
 d="M-0.000,38.000 L-0.000,-0.000 L49.000,-0.000 L49.000,38.000 L-0.000,38.000 ZM45.581,3.353 L3.419,3.353 L3.419,34.647 L45.581,34.647 L45.581,3.353 ZM40.000,12.062 L10.187,12.062 L10.187,8.687 L40.000,8.687 L40.000,12.062 ZM40.000,20.500 L10.187,20.500 L10.187,17.125 L40.000,17.125 L40.000,20.500 ZM40.000,28.937 L10.187,28.937 L10.187,25.562 L40.000,25.562 L40.000,28.937 Z"/>
</svg>
